icons/editor-scale-1-filled.svg

<svg width="25" height="24" viewBox="0 0 25 24" fill="none" xmlns="http://www.w3.org/2000/svg">
<g id="scale-01">
<path id="Icon" d="M5.61335 2.40039C3.97696 2.40039 2.65039 3.72695 2.65039 5.36335M14.3837 2.40039H10.1171M21.8504 5.36335C21.8504 3.72696 20.5238 2.40039 18.8874 2.40039M2.65039 9.86706V14.1337M21.8504 14.1337V9.86706M2.65039 18.6374C2.65039 20.2738 3.97695 21.6004 5.61335 21.6004M18.8874 21.6004C20.5238 21.6004 21.8504 20.2738 21.8504 18.6374M10.1171 21.6004H14.3837M2.65039 12.0004H10.1171C11.2953 12.0004 12.2504 12.9555 12.2504 14.1337V21.6004H5.85039C4.08308 21.6004 2.65039 20.1677 2.65039 18.4004V12.0004Z" stroke="black" stroke-width="2" stroke-linecap="round"/>
</g>
</svg>

<svg xmlns="http://www.w3.org/2000/svg" width="25" height="24" fill="none" viewBox="0 0 25 24"><path stroke="currentColor" stroke-linecap="round" stroke-width="2" d="M5.613 2.4A2.963 2.963 0 0 0 2.65 5.363M14.384 2.4h-4.267M21.85 5.363A2.963 2.963 0 0 0 18.887 2.4M2.65 9.867v4.267m19.2 0V9.867m-19.2 8.77A2.963 2.963 0 0 0 5.613 21.6m13.274 0a2.963 2.963 0 0 0 2.963-2.963M10.117 21.6h4.267M2.65 12h7.467c1.178 0 2.133.956 2.133 2.134V21.6h-6.4a3.2 3.2 0 0 1-3.2-3.2z"/></svg>
